X:2444
T:Polska från Uppland
T:Svenska Folkdansar H1 nr 27
O:Uppland
B:Traditioner av Svenska Folkdansar Häfte 1, nr 27
R:Polska
Z:Nils L
N:Se även [[Musik/1520|+]]
M:3/4
L:1/8
K:Dm
A2 | (de) (fe) (gf) | (ed) (fe) (d^c) | (^cd) D2 ::
e2 | f>g a2 (fa) | Vg2 e4 | a2 f2 ed | ^c2 A4 |
(de) (fe) (gf) | (e^c) (ge dc) | (^cd) D2 :|
(:musicend:)
(:music:)
